assets/refer.svg

<svg width="70" height="91" viewBox="0 0 70 91" fill="none" xmlns="http://www.w3.org/2000/svg">
<path d="M53 71.4954V1.50445C53 0.67314 52.359 -5.99814e-05 51.5674 -5.99814e-05H1.43256C0.641007 -5.99814e-05 0 0.67314 0 1.50445V71.4954C0 72.3267 0.641007 72.9999 1.43256 72.9999H51.5674L53 71.4954Z" fill="#008756"/>
<path d="M61.977 80.899V10.513C61.977 9.677 61.3 9 60.464 9H56.989V75.911C56.989 76.747 56.312 77.424 55.476 77.424H6V80.899C6 81.735 6.677 82.412 7.513 82.412H60.464C61.3 82.412 61.977 81.735 61.977 80.899Z" fill="#008756"/>
<path d="M68.463 17H64.988V83.91C64.988 84.745 64.311 85.423 63.475 85.423H14V88.898C14 89.734 14.677 90.411 15.513 90.411H68.464C69.3 90.411 69.977 89.734 69.977 88.898V18.512C69.9769 18.3133 69.9376 18.1166 69.8615 17.9331C69.7853 17.7496 69.6737 17.5828 69.5331 17.4424C69.3926 17.302 69.2257 17.1907 69.0421 17.1148C68.8585 17.0389 68.6617 16.9999 68.463 17Z" fill="#008756"/>
</svg>

<svg xmlns="http://www.w3.org/2000/svg" width="70" height="91" fill="none"><path fill="#008756" d="M53 71.495V1.505C53 .672 52.359 0 51.567 0H1.433C.64 0 0 .673 0 1.504v69.991C0 72.327.641 73 1.433 73h50.134L53 71.495Z"/><path fill="#008756" d="M61.977 80.899V10.513C61.977 9.677 61.3 9 60.464 9h-3.475v66.911c0 .836-.677 1.513-1.513 1.513H6v3.475c0 .836.677 1.513 1.513 1.513h52.951c.836 0 1.513-.677 1.513-1.513Z"/><path fill="#008756" d="M68.463 17h-3.475v66.91c0 .835-.677 1.513-1.513 1.513H14v3.475c0 .836.677 1.513 1.513 1.513h52.951c.836 0 1.513-.677 1.513-1.513V18.512A1.513 1.513 0 0 0 68.463 17Z"/></svg>
